X:1
T:Mr. Speaker
T:Mr. Speaker
%%score [ 1 2 3 ]
L:1/8
Q:1/4=60
M:6/8
K:Ab
V:1 treble nm="I"
V:2 treble nm="II"
V:3 treble nm="III"
V:1
 A2 E | C2 A, A,2 C | E3 c2 A | G2 E (EF) G | A3 (CB,) A, | E3 A B2 | c3- c3- | c2 c (cB) =A | %8
w: Mis- ter|Spea- ker, tho' 'tis|late, Mis- ter|Spea- ker, tho' _ 'tis|late, tho' _ 'tis|late, I must|lenght- *|* en the _ de-|
 B3 G2 A | B3- B3- | B2 B A2 G | A3 A2 A | F2 F B2 B | G3 c2 B | (AB) c (BA) G | A3 :| %16
w: bate, I must|length- *|* en the de-|bate, Mis- ter|Spea- ker, tho' 'tis|late, I must|length- * en the _ de-|bate.|
V:2
 z2 z | A2 E A2 E | B2 G z z2 | B2 G B2 E | c2 A E2 A | G3 z z2 | z2 z C D E | F G =A B2 F | %8
w: |Ques- tion! Ques- tion!|Ques- tion!|Ques- tion! Ques- tion!|Hear him, hear him,|hear.|Sir, I shall|name _ you if you|
 B,2 z D2 C | B,3 B, C D | (EF) G A2 E | A,3 A, B, C | D2 D B, C D | E2 E C D E | F2 C D2 E | %15
w: stir, if you|stir, sir, I shall|name _ you if you|stir sir, I shall|name you sir, I shall|name you sir, I shall|name you if you|
 A,3 :| %16
w: stir.|
V:3
 z2 z | z2 z c2 A | e2 B e2 c | e2 B e2 B | e2 c (ed) c | B3 c2 d | e2 e e2 z | e2 e (ed) c | %8
w: |Or- der!|Or- der! Or- der!|Hear him, hear him|hear him, hear _ him,|hear, pray sup-|port the chair,|pray sup- port _ the|
 d3 B2 c | d2 d d3 | d2 d c2 B | c3 c2 c | A2 A d2 d | B3 e2 d | (cd) e (dc) B | c3 :| %16
w: chair, pray sup-|port the chair,|pray sup- port the|chair, Ques- tion!|Or- der! Hear him,|hear, pray sup-|port, _ sup- port _ the|chair.|

